X:504
T:Jack's Confusion
C:Viola Keen, 1986
L:1/4
M:2/2
R:Reel
S:Colin Hume's website,  colinhume.com  - chords can also be printed below the stave.
Q:1/2=110
K:D
P:A
"D"FA AA | "/"FA AA | "D"FA d>c | "Em"cB B2 | "A7"EG GG | "/"EG GG | "A7"EG c>B | "D"BA A2 |
"D"FA AA | "/"FA AA | "D"FA "D7"f>e | "G"ed d2 | "Bm"ff ed | "A"cc BA | "Em"GG "A7"FE | "D"ED "D7"D2 |
K:G
P:B
"G"dB d>e | "/"dB d>e | "G"g/g/g/g/ fe | "Am"cB A2 | "D"cA c>d |\
"/"cA c>d | "C"e/e/e/e/ "D7"dc | "G"Bc "D7"d2 |
"G"dB d>e | "/"dB d>e | "G"g/g/g/g/ "G7"ag | "C"e4 |\
"D"f>f "D7"fe | "G"ed "E7"d>d | "Am"c>c "D7"BA | "G"AG G2 |]

